X:6
T:Keswick Bonny Lasses
M:C
S:Greg Stephens Collection
L:1/8
K:D
(3ABc|d2f3/2d/2 d3/2c/2B3/2A/2|Bcdc BAGF|G2BA GFED|
C2E2E2 (3ABc|d2fd dcBA|Bcdc BAGF|GABc dABG|F2D2D2:|
|:AG|FDFA dAGF|GEGB ecAG|FDFA dAGF|G2E2E2 (3ABc|
d2fd dcBA|Bcdc BAGF|GABc dABG|F2D2D2:|
%%vskip .5cm
